svg/white/eon.svg

<?xml version="1.0" encoding="UTF-8"?>
<svg width="32px" height="32px" viewBox="0 0 32 32" version="1.1" xmlns="http://www.w3.org/2000/svg" xmlns:xlink="http://www.w3.org/1999/xlink">
    <!-- Generator: Sketch 53 (72520) - https://sketchapp.com -->
    <title>svg/white/eon</title>
    <desc>Created with Sketch.</desc>
    <g id="white/eon" stroke="none" stroke-width="1" fill="none" fill-rule="evenodd">
        <path d="M16,32 C7.163444,32 0,24.836556 0,16 C0,7.163444 7.163444,0 16,0 C24.836556,0 32,7.163444 32,16 C32,24.836556 24.836556,32 16,32 Z M15.8099781,27.6750069 C15.9096589,27.7275664 16.0426477,27.7538462 16.1230769,27.7538462 C16.2396091,27.7538462 16.411309,27.6986784 16.5337084,27.588343 C17.4019433,27.0399283 21.4929291,24.4607775 23.6307692,23.2 C24.0615385,22.9538462 24.1846154,22.7076923 24.0615385,22.2769231 C23.3846154,19.1384615 21.9076923,12.1230769 21.9076923,12.1230769 L21.9001965,12.1427535 C21.8937303,11.9871815 21.8168139,11.8481549 21.6615385,11.6307692 C21.6615385,11.6307692 18.2769231,6.70769231 16.8,4.55384615 C16.4923077,4.18461538 16.3076923,4 16.1230769,4 C15.9384615,4 15.6923077,4.18461538 15.4461538,4.55384615 C13.9692308,6.64615385 10.5846154,11.6307692 10.5846154,11.6307692 C10.4445399,11.826875 10.3682331,11.9592119 10.349889,12.0974532 C10.3425347,12.0743399 10.3384615,12.0615385 10.3384615,12.0615385 C10.3384615,12.0615385 8.86153846,19.1384615 8.12307692,22.2769231 C8,22.7076923 8.12307692,22.9538462 8.55384615,23.2 C10.9538462,24.6153846 15.8153846,27.6923077 15.8153846,27.6923077 L15.8099781,27.6750069 Z M10.7683078,13.4192444 C11.404794,15.1887699 13.1149696,19.9602935 13.9076923,22.3384615 C14.2461262,23.2691548 14.9626234,25.3922014 15.3774525,26.6284232 C13.9875732,25.782563 12.3260974,24.7737449 10.9538462,23.9384615 C10.3384615,23.5692308 9.66153846,23.2 9.04615385,22.7692308 C8.8,22.5846154 8.8,22.4 8.8,22.2769231 C9.41510493,19.3859299 10.0916924,16.2490066 10.7683078,13.4192444 Z M16.9008829,26.5713901 C17.3321589,25.3278762 18.0468373,23.254995 18.3384615,22.3384615 C19.1166566,20.0525134 20.778986,15.3832469 21.4417834,13.5259349 C22.1098966,16.3277089 22.7772304,19.4222138 23.3846154,22.2769231 C23.3846154,22.4 23.3846154,22.5846154 23.1384615,22.7692308 C22.5230769,23.2 21.8461538,23.5692308 21.2307692,23.9384615 C19.8892295,24.755051 18.2712663,25.7374944 16.9008829,26.5713901 Z M20.5513971,12.4923077 C19.953254,14.2518238 17.3697616,21.8526112 16.1230769,25.5384615 C14.8221886,21.8526112 12.1844924,14.2518238 11.5741983,12.4923077 C13.5429594,12.4923077 18.4158397,12.4923077 20.5513971,12.4923077 Z M11.6564345,11.8153846 C12.4066199,10.7175581 14.9650549,6.97246472 16.0615385,5.35384615 C17.158022,6.97246472 19.716457,10.7175581 20.4666424,11.8153846 C18.433911,11.8153846 13.5688778,11.8153846 11.6564345,11.8153846 Z" id="Combined-Shape" fill="#FFFFFF" fill-rule="nonzero"></path>
    </g>
</svg>

<svg width="32" height="32" viewBox="0 0 32 32" xmlns="http://www.w3.org/2000/svg"><path d="M16 32C7.163 32 0 24.837 0 16S7.163 0 16 0s16 7.163 16 16-7.163 16-16 16zm-.19-4.325c.1.053.233.079.313.079a.667.667 0 0 0 .41-.166c.869-.548 4.96-3.127 7.098-4.388.43-.246.554-.492.43-.923a3332.509 3332.509 0 0 1-2.153-10.154l-.008.02c-.006-.156-.083-.295-.238-.512 0 0-3.385-4.923-4.862-7.077-.308-.37-.492-.554-.677-.554-.185 0-.43.185-.677.554-1.477 2.092-4.861 7.077-4.861 7.077-.14.196-.217.328-.235.466l-.012-.035s-1.476 7.076-2.215 10.215c-.123.43 0 .677.43.923 2.4 1.415 7.262 4.492 7.262 4.492l-.005-.017zm-5.042-14.256c.637 1.77 2.347 6.541 3.14 8.92.338.93 1.055 3.053 1.47 4.29l-4.424-2.69c-.616-.37-1.292-.739-1.908-1.17-.246-.184-.246-.369-.246-.492.615-2.891 1.292-6.028 1.968-8.858zm6.133 13.152a245.09 245.09 0 0 0 1.437-4.233c.779-2.285 2.441-6.955 3.104-8.812.668 2.802 1.335 5.896 1.943 8.75 0 .124 0 .309-.247.493-.615.431-1.292.8-1.907 1.17-1.342.816-2.96 1.798-4.33 2.632zm3.65-14.079c-.598 1.76-3.181 9.36-4.428 13.046a3516.33 3516.33 0 0 1-4.549-13.046h8.977zm-8.895-.677c.75-1.097 3.31-4.843 4.406-6.461a2810.21 2810.21 0 0 0 4.405 6.461h-8.81z" fill="#FFF"/></svg>
